X:2
T: He Diex! quant verrai
T: Adam de la Halle
M:3/4
L:1/8
P:ABAAABAB
K:F Lydian -8va
V:1 name=Tr
P:A
c4  fg | a4    (3gfe | d4 \
V:2 name=Du
f4  f2 | ed e2 (3edc | B4 \
V:3 name=Te
F4  F2 | A4    A2    | G4 \
V:1 name=Tr
P:B
ef | gf ed B2 | c6|]
V:2 name=Du
c2 | dc d2 e2 | f6|]
V:3 name=Te
A2 | G4    G2 | F6|]
